X: 41834
T: Vincie Crowley's
R: reel
M: 4/4
K: Gmajor
G3B dGBd|g2fg edBd|c2ec B2dB|Add^c d3B|
G3B GGBd|g2fg edBd|c2ec B2dB|1 (3ABc BA GBdB:|2 (3ABc BA Gdef||
g3f gdBd|gBfg edBd|c2ec B2dB|Add^c ddef|
g3f gdBd|gBfB edBd|c2ec B2dB|(3ABc BA GABd|
g3f gdBd|gBfg edBd|c2ec B2dB|Add^c d3B|
G3B GGBd|g2fg edBd|c2ec B2dB|(3ABc BA GABA||

